svgs/sharp-regular/loveseat.svg

<svg xmlns="http://www.w3.org/2000/svg" viewBox="0 0 512 512"><!--! Font Awesome Pro 6.6.0 by @fontawesome - https://fontawesome.com License - https://fontawesome.com/license (Commercial License) Copyright 2024 Fonticons, Inc. --><path d="M96 80l320 0 0 112 48 0 0-112 0-48-48 0L96 32 48 32l0 48 0 112 48 0L96 80zm0 192l0 160-48 0 0-160 48 0zM48 224L0 224l0 48L0 432l0 48 48 0 48 0 48 0 0-32 224 0 0 32 48 0 48 0 48 0 0-48 0-160 0-48-48 0-48 0-48 0 0 48 0 16-224 0 0-16 0-48-48 0-48 0zm96 112l224 0 0 64-224 0 0-64zm272-64l48 0 0 160-48 0 0-160z"/></svg>

<svg xmlns="http://www.w3.org/2000/svg" viewBox="0 0 512 512"><!--! Font Awesome Pro 6.4.2 by @fontawesome - https://fontawesome.com License - https://fontawesome.com/license (Commercial License) Copyright 2023 Fonticons, Inc. --><path d="M96 80H416V192h48V80 32H416 96 48V80 192H96V80zm0 192V432H48V272H96zM48 224H0v48V432v48H48 96h48V448H368v32h48 48 48V432 272 224H464 416 368v48 16H144V272 224H96 48zm96 112H368v64H144V336zm272-64h48V432H416V272z"/></svg>
